!!!COM: Hugo Wolf
!!!CNT: Deutscher
!!!TXO: Deutsche 
!!!OTL: Prometheus
!!!ODT: 1889/01/02
!!!ONM: No. 49
!!!LYR: Johann Wolfgang von Goethe
!!!ENC: Brian Bice
!!!YOR: 45 Songs on Poems of Goethe and Eichendorff, Dover Publications, 1995
!!NB: Vocal melody and text only encoded.
**kern	**silbe
*clefF4	*
*k[b-]	*
*M4/4	*
=23	=23
8.r	.
{16d	{Be-
4.d	-dek-
8d	-ke
8d	dei-
8d	-nen
=24	=24
4d	Him-
4d	-mel
4r	.
[4d	Zeus,
=25	=25
4d]	|
4r	.
4r	.
4d	mit
=26	=26
4.d	Wol-
8D	-ken-
2D}	-dunst}
=29	=29
2r	.
4r	.
8r	.
{8A	{und
=30	=30
[2B-	u2-
8B-]	|
8B-	-be,
8r	.
8B-	dem
=31	=31
4.Bn	Kna-
8D	-ben
4D	gleich,
4r	.
=32	=32
8r	.
8D	der
[4D	Di-
8D]	|
8B-	-steln
8B-}	ko2pft,}
8r	.
=33	=33
4r	.
8r	.
{8e	{an
[2e	Ei-
=34	=34
8.e]	|
16G	-chen
4G	dich
4r	.
8r	.
8d#	und
=35	=35
[2e	Ber-
8e]	|
8G	-ges-
4G}	-ho2hn;}
=39	=39
{2B-	{musst
4A	mir
8.A	mei-
16A	-ne
=40	=40
2G#	Er-
4E	-de
4r	.
=41	=41
2B-	doch
4Bn	las-
4Bn	-sen
=42	=42
2c}	stehn,}
2r	.
=43	=43
{2c	{und
4.Bn	mei-
8Bn	-ne
=44	=44
4A#	Hu2t-
4F#	-te,
4r	.
4F#	die
=45	=45
2c	du
4c#	nicht
4c#	ge-
=46	=46
2d}	-baut,}
2r	.
=47	=47
{2e-	{und
4A-	mei-
4c-	-nen
=48	=48
2e-	Herd,
8r	.
8B-	um
8B-	des-
8B-	-sen
=49	=49
2e-	Glut
4e-	du
8e-	mich
8e-	be-
=50	=50
4.en	-nei-
8En	|
4En}	-dest.}
4r	.
=54	=54
2r	.
4r	.
{4A	{Ich
=55	=55
2A	ken-
4A	-ne
4A	nihcts
=56	=56
4G	A2r-
8F#	-me-
8E	-res
4D#	un-
8E	-ter
8F#	der
=57	=57
8C	Sonn,
8r	.
2BBn	als
4A	euch
=58	=58
4A	Go2t-
4G#}	-ter!}
4r	.
{4E	{Ihr
=59	=59
2E	na2h-
2E	-ret
=60	=60
4.E	ku2m-
8E	-mer-
4E	-lich
4E	von
=61	=61
2.E	Op-
4F	-fer-
=62	=62
4F	-steu-
4F	-ern
4F	und
4F	Ge-
=63	=63
2F	-bets-
2A-	-hauch
=64	=64
4G	eu-
4An	-re
4Bn	Ma-
4c	-je-
=65	=65
(4c#	-sta2t,
4d)}	|}
4r	.
{4G	{und
=66	=66
2A-	darb-
4G}	-tet,}
4r	.
=67	=67
{2F#	{wa2-
4E#	-ren
4G#	nicht
=68	=68
2A	Kin-
4c#	-der
4A	und
=69	=69
4G	Bett-
4B-	-ler
[2BB-	hoff-
=70	=70
4BB-]	|
4C#	-nungs-
4D	-vol-
4F	-le
=71	=71
(4G#	To-
2A)	|
4C#}	-ren.}
=74	=74
{2G	{Da
4G	ich
4G	ein
=75	=75
2G	Kind
2F#	war,
=76	=76
4r	.
(2B-	nicht
4A)	|
=77	=77
2A	wuss-
2G#	-te,
=78	=78
4r	.
4Gn	wo
4F#	aus
4d	noch
=79	=79
2.E}	ein,}
4r	.
=80	=80
{4F	{kehrt
4F	ich
4F	mein
4F	ver-
=81	=81
2.F	-irr-
4F	-tes
=82	=82
2G-	Au-
4F#	-ge
4F#	zur
=83	=83
2.F#	Son-
4F#}	-ne,}
=84	=84
4r	.
{2G	{als
4G	wenn
=85	=85
4.G	dru2-
8G	-ber
4G	wa2r
4G	ein
=86	=86
2A-	Ohr,
4r	.
4G#	zu
=87	=87
4.G#	ho2-
8G#	-ren
4G#	mei-
4A	-ne
=88	=88
2.A	Kla-
4G#}	-ge,}
=89	=89
4r	.
{4A	{ein
2A	Herz,
=90	=90
4r	.
4A	wie
2B-	meins,
=91	=91
4r	.
4B-	sich
4B-	des
4B-	Be-
=92	=92
4B-	-dra2ng-
4B-	-ten
4B-	zu
4d-	er-
=93	=93
(4d-	-bar-
2c)	|
4B-}	-men.}
=102	=102
4r	.
{2d	{Wer
[4d	half
=103	=103
4d]	|
4d	mir
4r	.
[4d	wi-
=104	=104
8d]	|
8d	-der
8d	der
8d	Ti-
4d	-ta-
4d	-nen
=105	=105
4.d	U2-
8D	-ber-
4D}	-mut?}
4r	.
=109	=109
4r	.
{2e-	{Wer
[4e-	ret-
=110	=110
8.e-]	|
16e-	-te-
4e-	-te
4r	.
4e-	vom
=111	=111
4.e-	To-
8E-	-de
4E-	mich,
4r	.
=112	=112
8r	.
8E-	von
8.A	Skla-
16c	-ve-
2e-}	-rei?}
=115	=115
{2c-	{Hast
4B-	du
4B-	nicht
=116	=116
4A	al-
4F	-les
4.d-	selbst
8c	voll-
=117	=117
4Bn	-en-
4G	-det,
4r	.
(4A-	hei-
=118	=118
4An)	|
4An	-lig
4B-	glu2-
4B-	-hend
=119	=119
1Bn}	Herz?}
=120	=120
4r	.
{4Bn	{und
[2Bn	glu2h-
=121	=121
4Bn]	|
4Bn	-test
2Bn	jung
=122	=122
4r	.
4Bn	und
[2Bn	gut,
=123	=123
2Bn]}	|}
2r	.
=124	=124
2r	.
4r	.
8r	.
{8d	{be-
=125	=125
4d	-tro-
4D	-gen,
4r	.
[4d	Ret-
=126	=126
4.d]	|
8D	-tungs-
4D	-dank
4D	dem
=127	=127
4.c	Schla-
8c	-fen-
4c	-den
4B-	da
=128	=128
4A	dro-
4d}	-ben?}
2r	.
=133	=133
8r	.
{4.c	{Ich
8r	.
8c	dich
8c	eh-
8E	-ren?
=134	=134
4r	.
8r	.
8d#	Wo-
4d#}	-fu2r?}
4r	.
=137	=137
{2D	{Hast
4D	du
4D	die
=138	=138
2D	Schmer-
4D	-zen
4D	ge-
=139	=139
4D	-lin-
4B-	-dert
4B-	je
8B-	des
8A	Be-
=140	=140
4.G#	-la-
8E	-de-
4E}	-nen?}
4r	.
=141	=141
{2F	{Hast
4F	du
4F	die
=142	=142
2F	Tra2-
4F	-nen
4F	ge-
=143	=143
4F	-stil-
4d-	-let
4d-	je
8d-	des
8c	Ge-
=144	=144
4.Bn	-a2ng-
8G	-ste-
4G}	-ten?}
4r	.
=145	=145
{4A	{Hat
4A	nicht
4A	mich
4A	zum
=146	=146
4A-	Man-
8d-	-ne
8d-	ge-
4d-	-schmie-
8d-	-det
8d-	die
=147	=147
2d-	all-
4d-	-ma2ch-
8d-	-ti-
8d-	-ge
=148	=148
2d-	Zeit
8r	.
4d-	und
8d-	das
=149	=149
2dn	e-
4dn	-wi-
4dn	-ge
=150	=150
4e-	Schick-
4E-	-sal,
4r	.
(4e-	mei-
=151	=151
4d#)	|
4d#	-ne
4.d#	Herrn
8d#	und
=152	=152
2e	die-
4E}	-ne?}
4r	.
=153	=153
4r	.
{4.d	{Wa2hn-
8F	-test
4F	du
=154	=154
8G#	et-
8Bn	-wa,
8r	.
8E	ich
12E	soll-
12E	-te
12F#	das
8G#	Le-
8Bn	-ben
=155	=155
4d	has-
4D	-sen,
4r	.
4F	in
=156	=156
4.E	Wu2-
8F#	-sten
(8.G#	flie-
16Bn)	|
4Bn	-hen
=157	=157
4r	.
2Bn	weil
4Bn	nicht
=158	=158
2.c	al-
4c	-le
=159	=159
4.A-	Blu2-
8A-	-ten-
4G	-tra2u-
4F	-me
=160	=160
[4E	reif-
8.E]	|
16C	|
4C}	-ten?}
4r	.
=162	=162
{2E	{Hier
4E	sitz
4E	ich,
=163	=163
4r	.
8.E	for-
16E	-me
4E	Men-
8E	-schen
8E	nach
=164	=164
4E	mei-
4E	-nem
4E	Bil-
4C	-de,
=165	=165
4r	.
8D	ein
8D	Ge-
4D	-schlecht,
4D	das
=166	=166
2c	mir
4G	gleich
4F}	sei,}
=167	=167
4r	.
8r	.
{8G	{zu
8.G	lei-
16F	|
4F	-den,
=168	=168
8r	.
8A	zu
[4A	wei-
8.A]	|
16G#	|
4G#	-nen
=169	=169
8r	.
4A	zu
8A-	ge-
(8.G	-nie-
16c)	|
4c	-ssen
=170	=170
8r	.
4Bn	und
8A	zu
8.e	freu-
16d	-en
4d	sich,
=171	=171
8r	.
8d	und
2f	dein
8e	nicht
8d	zu
=172	=172
4.d	ach-
8G#	|
4G#}	-ten,}
4r	.
=173	=173
2r	.
4r	.
{4A	{wie
=174	=174
4D}	ich!}
4r	.
2r	.
*-	*-
